icons/Finance/vip-fill.svg

<svg viewBox="0 0 24 24" xmlns="http://www.w3.org/2000/svg"><path d="M3.00488 3H21.0049C21.5572 3 22.0049 3.44772 22.0049 4V20C22.0049 20.5523 21.5572 21 21.0049 21H3.00488C2.4526 21 2.00488 20.5523 2.00488 20V4C2.00488 3.44772 2.4526 3 3.00488 3ZM11.0049 8.5V15.5H13.0049V8.5H11.0049ZM10.72 8.5H8.60604L7.10912 12.6127L5.61221 8.5H3.49827L6.10912 15.4637H8.10912L10.72 8.5ZM16.0049 13.5H17.5049C18.8856 13.5 20.0049 12.3807 20.0049 11C20.0049 9.61929 18.8856 8.5 17.5049 8.5H14.0049V15.5H16.0049V13.5ZM16.0049 11.5V10.5H17.5049C17.781 10.5 18.0049 10.7239 18.0049 11C18.0049 11.2761 17.781 11.5 17.5049 11.5H16.0049Z"/></svg>

<svg xmlns="http://www.w3.org/2000/svg" viewBox="0 0 24 24">
    <g>
        <path fill="none" d="M0 0h24v24H0z"/>
        <path d="M3 3h18a1 1 0 0 1 1 1v16a1 1 0 0 1-1 1H3a1 1 0 0 1-1-1V4a1 1 0 0 1 1-1zm8 5.5v7h2v-7h-2zm-.285 0H8.601l-1.497 4.113L5.607 8.5H3.493l2.611 6.964h2L10.715 8.5zm5.285 5h1.5a2.5 2.5 0 1 0 0-5H14v7h2v-2zm0-2v-1h1.5a.5.5 0 1 1 0 1H16z"/>
    </g>
</svg>
